X:1632
T:Pollonoisse ur J.O Löfvéns notbok
C:J.O. Löfvén
R: Polska
N:Ur Dansmusik för Violin av J.O Löfvén
O:Sollentuna, Uppland
Z:Till abc av Jon Magnusson 090902
M:3/4
L:1/8
K:G
D|:G>F GA Bc|d>g b3 d|cB AB cd|e2 d3 g|
f>e dc BA|e>d d3 B|A>c ed cA|[1 G2 g3 D:|[2 G2 g3 G|]
|:F>A ce FA|G>B d3B|c>e g2 f>e|e>d d2 B2|
c>d e>f g>e|d>e f>g B>d|^c>d ed =cA|[1 G2 g3 G:|[2G2 g4|]
(:musicend:)
(:music:)
